X: 24
T: Castle Kelly
Z: Aaron Bergen
S: https://thesession.org/tunes/21#setting48792
R: reel
M: 4/4
L: 1/8
K: Amin
|:"Am"A2 cA A2 cA|"Em"GAEG G2 EG|"Am"A2cA GAcd|egdB cAA2|
"Am"A2 cA A2 cA|"Em"GAEG G2 EG|"Am"A2cA GAcd|egdB cAA2:|
|:"Am"agec d2 ed|"Em"cAGE G4|"Am"agec d2 cd|eaag a4|
"Am"agec d2 ed|"Em"cAGE G2 EG|"Am"A2cA GAcd|egdB cAA2:|

